images/customer-icon.svg

<svg width="49" height="48" viewBox="0 0 49 48" fill="none" xmlns="http://www.w3.org/2000/svg">
<g clip-path="url(#clip0_1_513)">
<path d="M27.2362 41.01L22.4715 36.42L18.0323 32.16L23.9512 31.29L30.61 30.33L31.4682 28.62H31.409C30.7298 28.6203 30.0711 28.3837 29.5435 27.95C29.016 27.5163 28.6517 26.9118 28.5117 26.238C28.5088 24.387 30.8763 24.987 32.7408 21.867C32.9776 21.807 41.0865 -0.00299835 24.5135 -0.00299835C7.94054 -0.00299835 16.0495 21.807 16.0495 21.807C17.9139 24.807 20.3111 24.357 20.2815 26.157C20.2519 27.957 18.0915 28.557 16.0495 28.767C12.6757 29.157 9.71621 28.377 6.75675 34.047C4.98108 37.317 4.24121 47.997 4.24121 47.997H26.0228V47.487L27.2362 41.01ZM35.5227 48H37.18L36.3513 47.58L35.5227 48Z" fill="#022C40"/>
<path d="M36.3514 44.19L43.6612 48L42.2703 39.93L48.1892 34.23L40.0211 33.06L36.3514 25.71L32.6816 33.06L24.5135 34.23L30.4324 39.93L29.0415 48L36.3514 44.19Z" fill="#022C40"/>
</g>
<defs>
<clipPath id="clip0_1_513">
<rect width="47.3514" height="48" fill="white" transform="translate(0.83783)"/>
</clipPath>
</defs>
</svg>

<svg xmlns="http://www.w3.org/2000/svg" width="49" height="48" fill="none">
  <g fill="#022C40" clip-path="url(#a)">
    <path d="m27.236 41.01-4.765-4.59-4.439-4.26 5.92-.87 6.658-.96.858-1.71h-.059c-.68 0-1.338-.236-1.865-.67a3.007 3.007 0 0 1-1.032-1.712c-.003-1.851 2.364-1.251 4.229-4.371.237-.06 8.346-21.87-8.227-21.87s-8.465 21.81-8.465 21.81c1.865 3 4.262 2.55 4.233 4.35-.03 1.8-2.19 2.4-4.233 2.61-3.373.39-6.333-.39-9.292 5.28-1.776 3.27-2.516 13.95-2.516 13.95h21.782v-.51l1.213-6.477ZM35.523 48h1.657l-.829-.42-.828.42Z"/>
    <path d="m36.351 44.19 7.31 3.81-1.39-8.07 5.918-5.7-8.168-1.17-3.67-7.35-3.67 7.35-8.167 1.17 5.918 5.7-1.39 8.07 7.31-3.81Z"/>
  </g>
  <defs>
    <clipPath id="a">
      <path fill="#fff" d="M.838 0h47.35v48H.839z"/>
    </clipPath>
  </defs>
</svg>
